X:1
T:Safe in the Arms of Jesus
T:Safe in the Arms of Jesus
T:William Howard Doane
T:Frances Jane (Fanny) Crosby, 1868
T:Public Domain Courtesy of the Cyber Hymnal™
T:Public Domain Courtesy of the Cyber Hymnal™
C:William Howard Doane
Z:Public Domain
Z:Courtesy of the Cyber Hymnal™
%%score ( 1 2 ) ( 3 4 )
L:1/8
Q:1/4=110
M:4/4
K:G
V:1 treble 
V:2 treble 
V:3 bass 
V:4 bass 
V:1
 [DB]2 [DA]>!fermata![DG] D2 [DG]2 | (B3 c) [GB]4 | [Gd]2 [Ge]>[Gd] [GB]2 G2 | [FA]8 | %4
w: 1.~Safe in the arms of|Je- * sus,|Safe on His gen- tle|breast,|
w: 2.~Safe in the arms of|Je- * sus,|Safe from cor- rod- ing|care,|
w: 3.~Je- sus, my heart’s dear|re- * fuge,|Je- sus has died for|me;|
 [DB]2 [DA]>!fermata![DG] D2 [DG]2 | (B3 c) [=Fd]4 | (dc)[EB][EA] [DG]2 [DF]2 | [DG]8 | %8
w: There by His love o’er-|shad- * ed,|Sweet- * ly my soul shall|rest.|
w: Safe from the world’s temp-|ta- * tions,|Sin * can- not harm me|there.|
w: Firm on the Rock of|A- * ges,|Ev- * er my trust shall|be.|
 [FA]2 [GB]>!fermata![GB] [FA]2 [FA]2 | [FA]4 [Fd]4 | [E^c]2 [Gc]>!fermata![Gc] [GB]2 [GA]2 | %11
w: Hark! ’tis the voice of|an- gels,|Borne in a song to|
w: Free from the blight of|sor- row,|Free from my doubts and|
w: Here let me wait with|pa- tience,|Wait till the night is|
 (A4 d4) | [FA]2 [FA]>!fermata![GB] [FA]2 [Fd]2 | [Gd]4 [GB]4 | %14
w: me. *|O- ver the fields of|glo- ry,|
w: fears; *|On- ly a few more|tri- als,|
w: over; *|Wait till I see the|morn- ing|
 [FA]2 [E^c]>!fermata![Fd] [Ge]2 [Ec]2 | d6 (z2 !fermata!c2) || %16
w: O- ver the jas- per|sea. *|
w: On- ly a few more|tears! *|
w: Break on the gold- en|shore. *|
"^Refrain" [DB]2 [DA]>!fermata![DG] D2 [DG]2 | (B3 c) [GB]4 | [Gd]2 [Ge]>!fermata![Gd] [GB]2 G2 | %19
w: |||
w: * Safe in the arms|of * Je-|sus, Safe on His gen-|
w: |||
 [FA]8 | [DB]2 [DA]>!fermata![DG] D2 [DG]2 | (B3 c) [=Fd]4 | (dc)[EB][EA] [DG]2 [DF]2 | [DG]8 |] %24
w: |||||
w: tle|breast There by His love|o’er- * shad-|ed, * Sweet- ly my soul|shall|
w: |||||
V:2
 x8 | G4 x4 | x6 G2 | x8 | x4 D2 x2 | G4 x4 | E2 x6 | x8 | x8 | x8 | x8 | F8 | x8 | x8 | x8 | %15
 F2 G2 A4 x2 || x8 | G4 x4 | x6 G2 | x8 | x4 D2 x2 | G4 x4 | E2 x6 | x8 |] %24
V:3
 [G,D]2 [G,C]>!fermata![G,B,] [G,B,]2 [G,B,]2 | (D3 E) [G,D]4 | %2
 [G,B,]2 [G,C]>[G,B,] [G,D]2 [B,,D]2 | [D,D]8 | [G,D]2 [G,C]>!fermata![G,B,] [G,B,]2 [G,B,]2 | %5
 [G,D]4 [B,,G,]4 | (G,A,)[C,D][C,C] [D,B,]2 (A,C) | [G,,B,]8 | %8
 [D,D]2 [D,D]>!fermata![D,D] [D,D]2 [D,D]2 | [D,D]4 [D,A,]4 | %10
 A,2 [A,E]>!fermata![A,E] [A,D]2 [A,^C]2 | (D4 A,4) | [D,D]2 [D,D]>!fermata![D,D] [D,D]2 [D,C]2 | %13
 [G,B,]4 [G,D]4 | [A,D]2 A,>!fermata!A, [A,,A,]2 [A,,A,]2 | A,6 (z2 !fermata!D2) || %16
 [G,D]2 [G,C]>!fermata![G,B,] [G,B,]2 [G,B,]2 | (D3 E) [G,D]4 | %18
 [G,B,]2 [G,C]>!fermata![G,B,] [G,D]2 [B,,D]2 | [D,D]8 | %20
 [G,D]2 [G,C]>!fermata![G,B,] [G,B,]2 [G,B,]2 | [G,D]4 [B,,G,]4 | (G,A,)[C,D][C,C] [D,B,]2 (A,C) | %23
 [G,,G,B,]8 |] %24
V:4
 x8 | G,4 x4 | x8 | x8 | x8 | x8 | C,2 x3 D,2 x | x8 | x8 | x8 | A,2 x6 | D,8 | x8 | x8 | %14
 x2 A,>A, x4 | D,2 E,2 F,4 x2 || x8 | G,4 x4 | x8 | x8 | x8 | x8 | C,2 x3 D,2 x | x8 |] %24

